X: 517
T: Pie baicai
%%abc-version 2.0
%%abcx-abcm2ps-target-version 5.9.1 (29 Sep 2008)
%%abc-creator hum2abc beta
%%abcx-conversion-date 2013/10/02 07:52:30
%%abc-edited-by Helmut Schaffrath
%%humdrum-veritas 1159039841
%%humdrum-veritas-data 3486740340
%%continueall 1
%%barnumbers 0
L: 1/8
M: 2/4
K: G
G G G E [I:setbarnb 1]| 
e g/ e/d2 | 
e d c B/ A/ | 
G4 | 
B B d B/ A/ | 
G BA2 | 
e a g/ a/ g/ e/ | 
d4 | 
G G G E | 
e gd2 | 
e d c/ c/ c/ A/ | 
G4 |]  



